**kern	**kern	**kern	**kern	**kern
*staff5	*staff4	*staff3	*staff2	*staff1
=1-	=1-	=1-	=1-	=1-
*clefF4	*clefGv2	*clefGv2	*clefGv2	*clefG2
*k[b-]	*k[b-]	*k[b-]	*k[b-]	*k[b-]
*met(C|)	*met(C|)	*met(C|)	*met(C|)	*met(C|)
*M2/2	*M2/2	*M2/2	*M2/2	*M2/2
0r	0G	0r	0r	0r
=2	=2	=2	=2	=2
0r	2.G/	0r	0G	0r
.	4A/	.	.	.
.	4B-\	.	.	.
.	4c\	.	.	.
.	[2B-\	.	.	.
=3	=3	=3	=3	=3
0GG	2B-\]	0r	2.G/	0r
.	4A/	.	.	.
.	4G/	.	4A/	.
.	1d	.	4B-\	.
.	.	.	4c\	.
.	.	.	[2B-\	.
=4	=4	=4	=4	=4
2.GG/	1r	0r	2B-\]	0r
.	.	.	4A/	.
4AA/	.	.	4G/	.
4BB-/	[1D	.	1d	.
4C/	.	.	.	.
[2BB-/	.	.	.	.
=5	=5	=5	=5	=5
2BB-/]	1D]	0r	0r	0r
4AA/	.	.	.	.
4GG/	.	.	.	.
1D	2.D/	.	.	.
.	4E/	.	.	.
=6	=6	=6	=6	=6
0r	4F/	0r	0D	0r
.	4G/	.	.	.
.	1F	.	.	.
.	4E/	.	.	.
.	4D/	.	.	.
=7	=7	=7	=7	=7
!!linebreak:default
0D	0A	0r	2.D/	0r
.	.	.	4E/	.
.	.	.	4F/	.
.	.	.	4G/	.
.	.	.	[2F/	.
=8	=8	=8	=8	=8
2.D\	0r	0r	2F/]	0r
.	.	.	4E/	.
4E\	.	.	4D/	.
4F\	.	.	1A	.
4G\	.	.	.	.
[2F\	.	.	.	.
=9	=9	=9	=9	=9
2F\]	0A	0r	1r	0r
4E\	.	.	.	.
4D\	.	.	.	.
1A	.	.	[1D	.
=10	=10	=10	=10	=10
0r	1A	0r	1D]	0r
.	1B-	.	1D	.
=11	=11	=11	=11	=11
0r	1c	0r	1E	0r
.	[1d	.	1F	.
=12	=12	=12	=12	=12
0GG	2d\]	0r	1.G	0r
.	2d\	.	.	.
.	[1d	.	.	.
.	.	.	2G/	.
=13	=13	=13	=13	=13
1GG	2d\]	0r	1G	0r
.	4c\	.	.	.
.	4B-\	.	.	.
1AA	1c	.	2E/	.
.	.	.	[2F/	.
=14	=14	=14	=14	=14
!!pagebreak:default
1BB-	1d	0r	2F/]	0r
.	.	.	2.G/	.
[1C	1G	.	.	.
.	.	.	4F/	.
.	.	.	4E/	.
.	.	.	4D/	.
=15	=15	=15	=15	=15
2C/]	1.c	0r	1E	0r
2C/	.	.	.	.
1C	.	.	1r	.
.	2A/	.	.	.
=16	=16	=16	=16	=16
1r	0A	0r	1.c	0r
[1F	.	.	.	.
.	.	.	2B-\	.
=17	=17	=17	=17	=17
2F\]	1.f	0r	2A/	0r
2E\	.	.	2G/	.
2D\	.	.	1F	.
2C/	2e\	.	.	.
=18	=18	=18	=18	=18
1BB-	2d\	0r	1B-	0r
.	2c\	.	.	.
1E-	1B-	.	1G	.
=19	=19	=19	=19	=19
1C	1c	0r	1A	0r
1D	1A	.	2A/	.
.	.	.	2F/	.
=20	=20	=20	=20	=20
2D\	1d	0r	2F/	0r
1BB-	.	.	4E/	.
.	.	.	4D/	.
.	2d\	.	1D	.
4AA/	[2B-\	.	.	.
4GG/	.	.	.	.
=21	=21	=21	=21	=21
!!linebreak:default
1GG	2B-\]	0r	1r	0r
.	4A/	.	.	.
.	4G/	.	.	.
1r	1G	.	[1B-	.
=22	=22	=22	=22	=22
1.G	1r	0r	2B-\]	0r
.	.	.	2B-\	.
.	[1d	.	2B-\	.
2G\	.	.	2G/	.
=23	=23	=23	=23	=23
2G\	2d\]	0r	1B-	0r
2D\	2d\	.	.	.
1F	2d\	.	2.A/	.
.	2A/	.	.	.
.	.	.	4F/	.
=24	=24	=24	=24	=24
2F\	1.c	0r	2A/	0r
1E-	.	.	1G	.
4D\	[2B-\	.	4F/	.
4C/	.	.	4E/	.
=25	=25	=25	=25	=25
0BB-	2B-\]	0r	2D/	0r
.	4A/	.	2.f\	.
.	4G/	.	.	.
.	1F	.	.	.
.	.	.	4e\	.
.	.	.	4d\	.
.	.	.	4c\	.
=26	=26	=26	=26	=26
1r	0f	0r	1d	0r
[1B-	.	.	2r	.
.	.	.	[2d\	.
=27	=27	=27	=27	=27
1B-]	1f	0r	4d\]	0r
.	.	.	4c\	.
.	.	.	4d\	.
.	.	.	4e\	.
1B-	1d	.	2f\	.
.	.	.	[2g\	.
=28	=28	=28	=28	=28
!!linebreak:default
1G	1.e	0r	4g\]	0r
.	.	.	4f\	.
.	.	.	4e\	.
.	.	.	4d\	.
[1A	.	.	1c	.
.	2e\	.	.	.
=29	=29	=29	=29	=29
2A\]	2.c\	0r	1.r	0r
2A\	.	.	.	.
.	4A/	.	.	.
2.F\	1A	.	.	.
.	.	.	2c\	.
4D\	.	.	.	.
=30	=30	=30	=30	=30
1D	1r	0r	2d\	0r
.	.	.	2f\	.
1r	[1d	.	4f\	.
.	.	.	4e\	.
.	.	.	4d\	.
.	.	.	4c\	.
=31	=31	=31	=31	=31
0G	1d]	0r	4B-\	0r
.	.	.	4A/	.
.	.	.	2.B-\	.
.	1d	.	.	.
.	.	.	4A/	.
.	.	.	4B-\	.
.	.	.	4c\	.
=32	=32	=32	=32	=32
1G	1B-	0r	2d\	0r
.	.	.	2.e-\	.
1E-	[1c	.	.	.
.	.	.	4d\	.
.	.	.	4c\	.
.	.	.	4B-\	.
=33	=33	=33	=33	=33
1.F	2c\]	0r	1A	0r
.	2c\	.	.	.
.	2.A/	.	1r	.
2F\	.	.	.	.
.	4F/	.	.	.
=34	=34	=34	=34	=34
2.D\	1F	0r	2r	0r
.	.	.	2A/	.
4BB-/	.	.	.	.
1BB-	1r	.	2B-\	.
.	.	.	2d\	.
=35	=35	=35	=35	=35
!!pagebreak:default
1r	0B-	0r	4d\	0r
.	.	.	4c\	.
.	.	.	4B-\	.
.	.	.	4A/	.
[1E-	.	.	4G/	.
.	.	.	4F/	.
.	.	.	[2G/	.
=36	=36	=36	=36	=36
1E-]	1B-	0r	4G/]	0r
.	.	.	4F/	.
.	.	.	4G/	.
.	.	.	4A/	.
1E-	1G	.	2B-\	.
.	.	.	[2c\	.
=37	=37	=37	=37	=37
1C	1.A	0r	4c\]	0r
.	.	.	4B-\	.
.	.	.	4A/	.
.	.	.	4G/	.
[1D	.	.	1F	.
.	2A/	.	.	.
=38	=38	=38	=38	=38
2D\]	2.F/	0r	1.r	0r
2D\	.	.	.	.
.	4D/	.	.	.
2.BB-/	2D/	.	.	.
.	[2d\	.	2F/	.
4GG/	.	.	.	.
=39	=39	=39	=39	=39
2GG/	1d]	0r	2G/	0r
2D\	.	.	2F/	.
2E-\	2c\	.	2G/	.
[2D\	[2B-\	.	[2F/	.
=40	=40	=40	=40	=40
2D\]	2B-\]	0r	2F/]	0r
4C/	4A/	.	4E/	.
4BB-/	4G/	.	4D/	.
1AA	4F#/	.	1C	.
.	4G/	.	.	.
.	4A/	.	.	.
.	4F#/	.	.	.
=41	=41	=41	=41	=41
0GG	1G	[0B-	1D	0r
.	2r	.	[1G	.
.	[2d\	.	.	.
=42	=42	=42	=42	=42
!!linebreak:default
2r	4d\]	0B-]	2G/]	0r
.	4e\	.	.	.
2D\	2f\	.	2F/	.
2E-\	2B-\	.	2G/	.
[2D\	[2f\	.	2B-\	.
=43	=43	=43	=43	=43
2D\]	2f\]	0F	1A	0r
4C/	4e-\	.	.	.
4BB-/	4d\	.	.	.
1AA	1c	.	2r	.
.	.	.	2A/	.
=44	=44	=44	=44	=44
2GG/	0B-	0G	2.B-\	[0b-
2.G\	.	.	.	.
.	.	.	4c\	.
.	.	.	2d\	.
4A\	.	.	.	.
[2B-\	.	.	2G/	.
=45	=45	=45	=45	=45
4B-\]	2r	0G	1B-	0b-]
4A\	.	.	.	.
4G\	1B-	.	.	.
4F\	.	.	.	.
1E-	.	.	2G/	.
.	2G/	.	[2B-\	.
=46	=46	=46	=46	=46
0D	1B-	0d	2B-\]	0f
.	.	.	4A/	.
.	.	.	4G/	.
.	1A	.	1F	.
=47	=47	=47	=47	=47
[0C	1.c	[0e-	1.E-	0g
.	2B-\	.	4D/	.
.	.	.	4C/	.
=48	=48	=48	=48	=48
0C]	1G	0e-]	2.E-/	0g
.	.	.	4F/	.
.	2E-/	.	2.G/	.
.	[2G/	.	.	.
.	.	.	4A/	.
=49	=49	=49	=49	=49
!!linebreak:default
0BB-	2G/]	0d	2.B-\	0dd
.	2F/	.	.	.
.	.	.	4A/	.
.	1D	.	2F/	.
.	.	.	[2G/	.
=50	=50	=50	=50	=50
[0C	4C/	0r	2G/]	[0ee-
.	4D/	.	.	.
.	4E/	.	2C/	.
.	4F/	.	.	.
.	2G/	.	2.E-/	.
.	[2c\	.	.	.
.	.	.	4F/	.
=51	=51	=51	=51	=51
0C]	4c\]	0r	1G	0ee-]
.	4B-\	.	.	.
.	1B-	.	.	.
.	.	.	1E-	.
.	2A/	.	.	.
=52	=52	=52	=52	=52
1.BB-	[0B-	0r	1r	0dd
.	.	.	[1F	.
2C/	.	.	.	.
=53	=53	=53	=53	=53
1D	0B-]	0r	1F]	0r
2.E-\	.	.	1G	.
4D\	.	.	.	.
=54	=54	=54	=54	=54
1BB-	1r	0r	1F	0r
2r	[1B-	.	[1G	.
[2B-\	.	.	.	.
=55	=55	=55	=55	=55
2B-\]	1B-]	0r	1G]	0r
4A\	.	.	.	.
4G\	.	.	.	.
1A	1c	.	1F	.
=56	=56	=56	=56	=56
!!pagebreak:default
1r	1B-	0r	2r	0r
.	.	.	1B-	.
[1F	[1c	.	.	.
.	.	.	4A/	.
.	.	.	4G/	.
=57	=57	=57	=57	=57
1F]	1c]	0r	1A	0r
1G	1B-	.	1r	.
=58	=58	=58	=58	=58
1F	0r	0r	2r	0r
.	.	.	1f	.
[1G	.	.	.	.
.	.	.	4e\	.
.	.	.	4d\	.
=59	=59	=59	=59	=59
1G]	1B-	0r	4e\	0r
.	.	.	4f\	.
.	.	.	1B-	.
1F	[1c	.	.	.
.	.	.	4A/	.
.	.	.	4G/	.
=60	=60	=60	=60	=60
2r	1c]	0r	1A	0r
2F\	.	.	.	.
[1G	1B-	.	2r	.
.	.	.	[2B-\	.
=61	=61	=61	=61	=61
1G]	2r	0r	2B-\]	0r
.	2B-\	.	4A/	.
.	.	.	4G/	.
1F	[1f	.	4A/	.
.	.	.	4B-\	.
.	.	.	4c\	.
.	.	.	4A/	.
=62	=62	=62	=62	=62
1BB-	2f\]	0d	1B-	0r
.	2f\	.	.	.
[1F	1f	.	[1A	.
=63	=63	=63	=63	=63
!!linebreak:default
2F\]	1.r	1c	2A/]	0r
2E\	.	.	2G/	.
1D	.	1B-	[1F	.
.	[2B-\	.	.	.
=64	=64	=64	=64	=64
2.C/	2B-\]	0c	2F/]	0r
.	4A/	.	4E/	.
4BB-/	4G/	.	4D/	.
1C	4A/	.	1E	.
.	4B-\	.	.	.
.	4c\	.	.	.
.	4A/	.	.	.
=65	=65	=65	=65	=65
0BB-	2B-\	0d	1.F	0dd
.	2F/	.	.	.
.	[1f	.	.	.
.	.	.	2D/	.
=66	=66	=66	=66	=66
1.r	2f\]	0r	1A	1cc
.	2e\	.	.	.
.	1d	.	1B-	1b-
[2B-\	.	.	.	.
=67	=67	=67	=67	=67
2B-\]	2.c\	0r	0F	0cc
4A\	.	.	.	.
4G\	4B-\	.	.	.
4A\	1c	.	.	.
4B-\	.	.	.	.
4c\	.	.	.	.
4A\	.	.	.	.
=68	=68	=68	=68	=68
0B-	4B-\	0r	1r	0dd
.	4c\	.	.	.
.	4d\	.	.	.
.	4e\	.	.	.
.	2f\	.	1B-	.
.	[2g\	.	.	.
=69	=69	=69	=69	=69
1.r	2g\]	0r	0B-	0r
.	4f\	.	.	.
.	4e\	.	.	.
.	1d	.	.	.
[2B-\	.	.	.	.
=70	=70	=70	=70	=70
!!linebreak:default
2B-\]	0r	0r	1.c	0r
4A\	.	.	.	.
4G\	.	.	.	.
4A\	.	.	.	.
4B-\	.	.	.	.
4c\	.	.	4B-\	.
4A\	.	.	4c\	.
=71	=71	=71	=71	=71
1B-	4B-\	0r	2d\	0r
.	4c\	.	.	.
.	4d\	.	4B-\	.
.	4e\	.	4c\	.
1BB-	2f\	.	4d\	.
.	.	.	4e\	.
.	2B-\	.	2f\	.
=72	=72	=72	=72	=72
1BB-	2.f\	0r	4B-\	0r
.	.	.	4c\	.
.	.	.	4d\	.
.	4e\	.	4e\	.
1BB-	4d\	.	2f\	.
.	4c\	.	.	.
.	[2B-\	.	[2g\	.
=73	=73	=73	=73	=73
1.C	4B-\]	0r	4g\]	0r
.	4A/	.	4f\	.
.	4G/	.	1f	.
.	4F/	.	.	.
.	1G	.	.	.
4BB-/	.	.	2e\	.
4C/	.	.	.	.
=74	=74	=74	=74	=74
0D	1F	0r	1f	0r
.	1r	.	1r	.
=75	=75	=75	=75	=75
1r	1.D	0r	1.F	0r
[1BB-	.	.	.	.
.	2D/	.	2F/	.
=76	=76	=76	=76	=76
2BB-/]	1D	0r	1G	0r
2BB-/	.	.	.	.
1C	1E	.	1A	.
=77	=77	=77	=77	=77
!!pagebreak:default
2.D\	2.F/	0r	2.B-\	0r
4C/	4E/	.	4A/	.
2BB-/	2D/	.	2G/	.
2AA/	2C/	.	2F/	.
=78	=78	=78	=78	=78
1GG	2D/	0d	1G	0r
.	1B-	.	.	.
[1F	.	.	1D	.
.	4A/	.	.	.
.	4G/	.	.	.
=79	=79	=79	=79	=79
2F\]	1A	1c	0r	0r
2F\	.	.	.	.
1G	1r	1B-	.	.
=80	=80	=80	=80	=80
2.A\	2r	0c	0r	0r
.	1A	.	.	.
4G\	.	.	.	.
2F\	.	.	.	.
2E\	2G/	.	.	.
=81	=81	=81	=81	=81
0D	1B-	0d	1r	0dd
.	1A	.	[1f	.
=82	=82	=82	=82	=82
0r	0r	0r	2f\]	1cc
.	.	.	2f\	.
.	.	.	1g	1b-
=83	=83	=83	=83	=83
0r	1r	0r	2.a\	0cc
.	.	.	4g\	.
.	1A	.	2f\	.
.	.	.	2e\	.
=84	=84	=84	=84	=84
!!linebreak:default
1D	1F	0r	0d	0dd
1BB-	1G	.	.	.
=85	=85	=85	=85	=85
1C	1A	0r	0r	0r
1D	[1F	.	.	.
=86	=86	=86	=86	=86
1.BB-	2F/]	0r	0r	0r
.	2D/	.	.	.
.	1D	.	.	.
2GG/	.	.	.	.
=87	=87	=87	=87	=87
1GG	1r	0r	0r	0r
1r	1D	.	.	.
=88	=88	=88	=88	=88
1GG	0G	0r	0r	0r
[1C	.	.	.	.
=89	=89	=89	=89	=89
1C]	1G	0r	0r	0r
1C	[1c	.	.	.
=90	=90	=90	=90	=90
1.F	2c\]	0r	0r	0r
.	2c\	.	.	.
.	2.c\	.	.	.
2F\	.	.	.	.
.	4B-\	.	.	.
=91	=91	=91	=91	=91
!!linebreak:default
2.F\	2c\	0r	0r	0r
.	2.d\	.	.	.
4E\	.	.	.	.
2F\	.	.	.	.
.	4c\	.	.	.
[2G\	4B-\	.	.	.
.	4A/	.	.	.
=92	=92	=92	=92	=92
4G\]	2B-\	0d	0r	0r
4F\	.	.	.	.
2.D\	2A/	.	.	.
.	2B-\	.	.	.
4E\	.	.	.	.
[2F\	[2A/	.	.	.
=93	=93	=93	=93	=93
4F\]	4A/]	1c	1r	0r
4E\	4G/	.	.	.
4D\	1G	.	.	.
4C/	.	.	.	.
1D	.	1B-	1d	.
.	2F/	.	.	.
=94	=94	=94	=94	=94
0C	1G	0c	2e\	0r
.	.	.	2c\	.
.	2r	.	2.e\	.
.	2c\	.	.	.
.	.	.	4f\	.
=95	=95	=95	=95	=95
0r	2B-\	0G	2.g\	0dd
.	2G/	.	.	.
.	.	.	4f\	.
.	2.B-\	.	4d\	.
.	.	.	4c\	.
.	.	.	4d\	.
.	4A/	.	4e\	.
=96	=96	=96	=96	=96
0r	2F/	0r	4f\	1cc
.	.	.	4e\	.
.	2A/	.	4d\	.
.	.	.	4c\	.
.	1G	.	1d	1b-
=97	=97	=97	=97	=97
0r	1C	0r	0c	0cc
.	1c	.	.	.
=98	=98	=98	=98	=98
!!pagebreak:default
1C	1c	0r	1r	0g
1C	1c	.	1g	.
=99	=99	=99	=99	=99
1C	1.G	0r	1g	0r
[1GG	.	.	1g	.
.	2G/	.	.	.
=100	=100	=100	=100	=100
2GG/]	1G	0r	1.d	0r
2GG/	.	.	.	.
1GG	1B-	.	.	.
.	.	.	2d\	.
=101	=101	=101	=101	=101
2r	1.B-	0r	0d	0r
2G\	.	.	.	.
2G\	.	.	.	.
2G\	2B-\	.	.	.
=102	=102	=102	=102	=102
2.F\	4A/	0A	0r	0r
.	4G/	.	.	.
.	4F/	.	.	.
4E\	4E/	.	.	.
2D\	2F/	.	.	.
[2C/	[2E/	.	.	.
=103	=103	=103	=103	=103
4C/]	4E/]	1G	1r	0r
4BB-/	4D/	.	.	.
2GG/	1D	.	.	.
1AA	.	1F	1c	.
.	2C/	.	.	.
=104	=104	=104	=104	=104
1GG	2D/	0G	2B-\	0r
.	2.d\	.	2G/	.
2r	.	.	1B-	.
.	4c\	.	.	.
2G\	4d\	.	.	.
.	4e\	.	.	.
=105	=105	=105	=105	=105
!!linebreak:default
2F\	2.f\	0D	2A/	0a
2D\	.	.	2.F/	.
.	4e\	.	.	.
2.F\	4d\	.	.	.
.	4c\	.	4G/	.
.	2d\	.	4A/	.
4E\	.	.	4B-\	.
=106	=106	=106	=106	=106
2C/	2e-\	0r	2c\	1g
2E-\	2c\	.	2G/	.
1D	[1d	.	1A	1f
=107	=107	=107	=107	=107
1GG	2d\]	1.G	[0G	0g
.	2c\	.	.	.
1r	[1B-	.	.	.
.	.	2A/	.	.
=108	=108	=108	=108	=108
1.GG	2B-\]	[0B-	0G]	[0d
.	2A/	.	.	.
.	1G	.	.	.
2AA/	.	.	.	.
=109	=109	=109	=109	=109
[0BB-	1F	0B-_	1.D	0d_
.	1G	.	.	.
.	.	.	2E/	.
=110	=110	=110	=110	=110
0BB-]	0D	0B-]	0F	0d]
!! YYYYYY
.	.	!!linebreak:default	!!linebreak:default	.
=111	=111	=111	=111	=111
!!linebreak:default
0r	0r	0r	0c	0r
=112	=112	=112	=112	=112
0r	0r	0r	1c	0r
.	.	.	1c	.
=113	=113	=113	=113	=113
0r	0F	0r	2.c\	0r
.	.	.	4B-\	.
.	.	.	2c\	.
.	.	.	[2d\	.
=114	=114	=114	=114	=114
0r	1F	0r	2d\]	0r
.	.	.	4c\	.
.	.	.	4B-\	.
.	1F	.	1A	.
=115	=115	=115	=115	=115
0BB-	2.F/	0r	1r	0r
.	4E/	.	.	.
.	2F/	.	[1D	.
.	[2G/	.	.	.
=116	=116	=116	=116	=116
1BB-	2G/]	0r	1D]	0r
.	4F/	.	.	.
.	4E/	.	.	.
1BB-	1D	.	[1d	.
=117	=117	=117	=117	=117
2.BB-/	2r	0r	1d]	0r
.	1D	.	.	.
4AA/	.	.	.	.
2BB-/	.	.	1G	.
[2C/	[2E-/	.	.	.
=118	=118	=118	=118	=118
!!pagebreak:default
2C/]	2E-/]	0r	1c	0r
4BB-/	4D/	.	.	.
4AA/	4C/	.	.	.
2.GG/	2E-/	.	2.B-\	.
.	[2D/	.	.	.
4AA/	.	.	4c\	.
=119	=119	=119	=119	=119
2.BB-/	4D/]	0r	4d\	0r
.	4C/	.	4e-\	.
.	4D/	.	1d	.
4C/	4E/	.	.	.
1D	[1F	.	.	.
.	.	.	4c\	.
.	.	.	4B-\	.
=120	=120	=120	=120	=120
1r	1F]	0r	2.A/	0r
.	.	.	4G/	.
[1D	1r	.	1A	.
=121	=121	=121	=121	=121
1D]	0F	0r	1r	0r
1D	.	.	[1f	.
=122	=122	=122	=122	=122
1D	1F	0r	1f]	0r
2.D\	1F	.	2f\	.
.	.	.	[2f\	.
4C/	.	.	.	.
=123	=123	=123	=123	=123
2D\	2F/	0r	2f\]	0r
1E-	1G	.	2B-\	.
.	.	.	1e-	.
4D\	4F/	.	.	.
4C/	4E-/	.	.	.
=124	=124	=124	=124	=124
2.BB-/	2G/	0r	2.d\	0r
.	2.F/	.	.	.
4C/	.	.	4e\	.
4D\	.	.	2f\	.
4E\	4G/	.	.	.
[2F\	4A/	.	4F/	.
.	4B-\	.	4G/	.
=125	=125	=125	=125	=125
!!linebreak:default
2F\]	2.c\	0r	4A/	0r
.	.	.	4B-\	.
4C/	.	.	1c	.
4D\	4B-\	.	.	.
4E\	4G/	.	.	.
4F\	4A/	.	.	.
[2G\	4B-\	.	4G/	.
.	4c\	.	4A/	.
=126	=126	=126	=126	=126
2G\]	4d\	0r	4B-\	0r
.	4e\	.	4c\	.
2F\	1f	.	1d	.
2.D\	.	.	.	.
.	4e\	.	4c\	.
4E\	4d\	.	4B-\	.
=127	=127	=127	=127	=127
0F	1c	0r	1A	0r
.	1r	.	1r	.
=128	=128	=128	=128	=128
1r	0c	0r	0A	0r
1F	.	.	.	.
=129	=129	=129	=129	=129
0F	1c	0r	1A	0r
.	[1c	.	[1A	.
=130	=130	=130	=130	=130
1F	1c]	0r	1A]	0r
2.F\	1c	.	2.A/	.
4E\	.	.	4G/	.
=131	=131	=131	=131	=131
2F\	0d	0r	2A/	0r
1G	.	.	1B-	.
4F\	.	.	4A/	.
4E\	.	.	4G/	.
=132	=132	=132	=132	=132
!!linebreak:default
0D	0d	0r	2B-\	0r
.	.	.	2.A/	.
.	.	.	4G/	.
.	.	.	4F/	.
.	.	.	4E/	.
=133	=133	=133	=133	=133
2r	2r	0r	2D/	0r
2BB-/	2D/	.	2d\	.
2C/	2E/	.	2c\	.
2D\	2F/	.	2A/	.
=134	=134	=134	=134	=134
4GG/	2G/	0r	1B-	0r
4AA/	.	.	.	.
4BB-/	4D/	.	.	.
4C/	4E/	.	.	.
4D\	4F/	.	2.A/	.
4E-\	4G/	.	.	.
[2D\	[2A/	.	.	.
.	.	.	4G/	.
=135	=135	=135	=135	=135
2D\]	4A/]	0r	4F/	0r
.	4B-\	.	4E/	.
2BB-/	2.G/	.	1D	.
1AA	.	.	.	.
.	4F#/	.	.	.
.	4F#/	.	2C/	.
.	4E/	.	.	.
=136	=136	=136	=136	=136
1GG	2G/	0r	2D/	0r
.	2B-\	.	2d\	.
1r	2c\	.	2e\	.
.	2d\	.	2f\	.
=137	=137	=137	=137	=137
0r	4G/	0r	2g\	0r
.	4A/	.	.	.
.	4B-\	.	4G/	.
.	4c\	.	4A/	.
.	4d\	.	4B-\	.
.	4e-\	.	4c\	.
.	[2d\	.	4d\	.
.	.	.	4e\	.
=138	=138	=138	=138	=138
2r	2d\]	0r	4f\	0r
.	.	.	4d\	.
2BB-/	2B-\	.	2.g\	.
2C/	1A	.	.	.
.	.	.	4f#\	.
2D\	.	.	4f#\	.
.	.	.	4e\	.
=139	=139	=139	=139	=139
!!pagebreak:default
4GG/	1G	0B-	2g\	0r
4AA/	.	.	.	.
4BB-/	.	.	4d\	.
4C/	.	.	4e\	.
4D\	1r	.	4f\	.
4E-\	.	.	4g\	.
[2D\	.	.	[2f\	.
=140	=140	=140	=140	=140
2D\]	0A	0F	2f\]	0r
2BB-/	.	.	2d\	.
1AA	.	.	1c	.
=141	=141	=141	=141	=141
0GG	1.B-	1G	2B-\	0b-
.	.	.	1G	.
.	.	1G	.	.
.	4A/	.	4F/	.
.	4G/	.	4E/	.
=142	=142	=142	=142	=142
2r	1B-	0d	0D	0f
2D\	.	.	.	.
1F	1A	.	.	.
=143	=143	=143	=143	=143
2E-\	2r	0e-	1C	1g
2C/	2c\	.	.	.
2.E-\	2B-\	.	[1G	1g
.	2G/	.	.	.
4D\	.	.	.	.
=144	=144	=144	=144	=144
1BB-	1B-	0d	1G]	0dd
1D	1A	.	1F	.
=145	=145	=145	=145	=145
2C/	2r	0r	1c	0ee-
2AA/	2A/	.	.	.
2.C/	2G/	.	2r	.
.	2E-/	.	2c\	.
4BB-/	.	.	.	.
=146	=146	=146	=146	=146
!!linebreak:default
0GG	2.G/	0r	2B-\	0dd
.	.	.	2G/	.
.	4F/	.	.	.
.	2.D/	.	1B-	.
.	4E/	.	.	.
=147	=147	=147	=147	=147
1r	2.F/	0r	1A	0r
.	4G/	.	.	.
[1D	1A	.	2r	.
.	.	.	[2f\	.
=148	=148	=148	=148	=148
2D\]	2r	0r	2f\]	0r
2D\	1A	.	2f\	.
1D	.	.	1f	.
.	2A/	.	.	.
=149	=149	=149	=149	=149
1C	1A	0r	1e	0r
[1E-	1G	.	[1g	.
=150	=150	=150	=150	=150
1E-]	0B-	0r	1g]	0r
1D	.	.	2f\	.
.	.	.	2d\	.
=151	=151	=151	=151	=151
2r	1A	0r	2.f\	0r
2D\	.	.	.	.
.	.	.	4e\	.
2.F\	2r	.	4c\	.
.	.	.	4A/	.
.	2A/	.	[2c\	.
4E\	.	.	.	.
=152	=152	=152	=152	=152
2.C/	2.c\	0r	4c\]	0r
.	.	.	4d\	.
.	.	.	4e\	.
4D\	4B-\	.	4f\	.
4E\	2G/	.	2.g\	.
4F\	.	.	.	.
[2G\	[2B-\	.	.	.
.	.	.	4f\	.
=153	=153	=153	=153	=153
!!linebreak:default
4G\]	2B-\]	1r	2.d\	0r
4F\	.	.	.	.
2.D\	2A/	.	.	.
.	.	.	4c\	.
.	2B-\	1d	4d\	.
4C/	.	.	4e\	.
4D\	2F/	.	[2f\	.
4E\	.	.	.	.
=154	=154	=154	=154	=154
2F\	2A/	2c\	2f\]	0r
2G\	2B-\	2B-\	2d\	.
1E	1G	1c	2e\	.
.	.	.	2g\	.
=155	=155	=155	=155	=155
0D	0A	0d	2f\	1r
.	.	.	2.d\	.
.	.	.	.	1dd
.	.	.	4c\	.
.	.	.	4d\	.
.	.	.	4e\	.
=156	=156	=156	=156	=156
0r	1r	0r	2f\	2cc\
.	.	.	2g\	2b-\
.	1A	.	1e	1cc
=157	=157	=157	=157	=157
1D	2.F/	0r	0d	0dd
.	4E/	.	.	.
1BB-	2F/	.	.	.
.	[2G/	.	.	.
=158	=158	=158	=158	=158
2.C/	2G/]	0r	0r	0r
.	2.A/	.	.	.
4BB-/	.	.	.	.
2C/	.	.	.	.
.	4G/	.	.	.
[2D\	4F/	.	.	.
.	4E/	.	.	.
=159	=159	=159	=159	=159
4D\]	2D/	0r	1d	0r
4C/	.	.	.	.
4BB-/	2.d\	.	.	.
4AA/	.	.	.	.
2GG/	.	.	1B-	.
.	4c\	.	.	.
2G\	4B-\	.	.	.
.	4A/	.	.	.
=160	=160	=160	=160	=160
!!pagebreak:default
2E\	2G/	0r	2.c\	0r
2.F\	1A	.	.	.
.	.	.	4B-\	.
.	.	.	2c\	.
4E\	.	.	.	.
4D\	2F/	.	[2d\	.
4C/	.	.	.	.
=161	=161	=161	=161	=161
1BB-	1B-	0r	4d\]	0r
.	.	.	4c\	.
.	.	.	4B-\	.
.	.	.	4A/	.
[1B-	2r	.	1G	.
.	[2d\	.	.	.
=162	=162	=162	=162	=162
2B-\]	2d\]	0r	1.r	0r
4A\	2d\	.	.	.
4G\	.	.	.	.
1G	1d	.	.	.
.	.	.	[2G/	.
=163	=163	=163	=163	=163
2r	1.e	0r	2G/]	0r
1C	.	.	2G/	.
.	.	.	1G	.
2C/	4d\	.	.	.
.	4e\	.	.	.
=164	=164	=164	=164	=164
1C	2c\	0r	1.A	0r
.	2A/	.	.	.
[1D	1A	.	.	.
.	.	.	4G/	.
.	.	.	4A/	.
=165	=165	=165	=165	=165
2D\]	1.d	0r	2F/	0r
4C/	.	.	2D/	.
4D\	.	.	.	.
2BB-/	.	.	1D	.
2GG/	4c\	.	.	.
.	4d\	.	.	.
=166	=166	=166	=166	=166
!!linebreak:default
2.GG/	2B-\	1r	1G	0r
.	2.d\	.	.	.
4AA/	.	.	.	.
4BB-/	.	1d	1r	.
4C/	4c\	.	.	.
4D\	2B-\	.	.	.
4E\	.	.	.	.
=167	=167	=167	=167	=167
2F\	2A/	2c\	0r	0r
1G	2G/	2B-\	.	.
.	1A	1c	.	.
2F#\	.	.	.	.
=168	=168	=168	=168	=168
1G	2B-\	0G	2r	1r
.	4G/	.	2.d\	.
.	4A/	.	.	.
1GG	4B-\	.	.	1dd
.	4c\	.	4c\	.
.	4d\	.	2B-\	.
.	4e\	.	.	.
=169	=169	=169	=169	=169
1r	2f\	0r	2A/	2cc\
.	2g\	.	2G/	2b-\
1C	2.e\	.	2A/	1cc
.	.	.	[2G/	.
.	4f\	.	.	.
=170	=170	=170	=170	=170
[0C	[0g	[0c	1G]	[0g
.	.	.	2E/	.
.	.	.	2C/	.
=171	=171	=171	=171	=171
0C]	0g]	0c]	0G	0g]
=172	=172	=172	=172	=172
!!linebreak:default
1r	1c	0r	0r	0r
1C	1c	.	.	.
=173	=173	=173	=173	=173
1C	2.G/	0r	1G	0r
.	4A/	.	.	.
2.GG/	4B-\	.	1G	.
.	4c\	.	.	.
.	[2d\	.	.	.
4AA/	.	.	.	.
=174	=174	=174	=174	=174
4BB-/	2d\]	0r	2.D/	0r
4C/	.	.	.	.
2.D\	2.f\	.	.	.
.	.	.	4E/	.
.	.	.	4F/	.
4C/	4e\	.	4G/	.
4C/	[2e\	.	[2A/	.
4BB-/	.	.	.	.
=175	=175	=175	=175	=175
2D\	4e\]	0r	2A/]	0r
.	4d\	.	.	.
2F\	1d	.	2F/	.
1E	.	.	1G	.
.	2c#\	.	.	.
=176	=176	=176	=176	=176
1D	2d\	0r	1A	0r
.	2f\	.	.	.
1r	2.g\	.	2.G/	.
.	4f\	.	4A/	.
=177	=177	=177	=177	=177
2r	2d\	0r	4B-\	0r
.	.	.	4c\	.
2BB-/	2f\	.	2d\	.
2.C/	1e	.	2G/	.
.	.	.	2A/	.
4BB-/	.	.	.	.
=178	=178	=178	=178	=178
!!pagebreak:default
2GG/	1d	0r	2B-\	0r
2BB-/	.	.	2.G/	.
1AA	1r	.	.	.
.	.	.	4F#/	.
.	.	.	4F#/	.
.	.	.	4E/	.
=179	=179	=179	=179	=179
1GG	2r	0r	2G/	0r
.	2B-\	.	2d\	.
2r	2.c\	.	2c\	.
2F\	.	.	2A/	.
.	4B-\	.	.	.
=180	=180	=180	=180	=180
2.G\	2G/	1B-	2B-\	0r
.	2B-\	.	2.d\	.
4F\	.	.	.	.
2D\	1A	1F	.	.
.	.	.	4c\	.
2F\	.	.	2A/	.
=181	=181	=181	=181	=181
1E-	1G	2G/	2G/	1b-
.	.	2G/	2.B-\	.
1D	2r	1d	.	1f
.	.	.	4A/	.
.	2A/	.	2F/	.
=182	=182	=182	=182	=182
1.r	2c\	1e-	2E-/	2g/
.	4G/	.	2.G/	2g/
.	4A/	.	.	.
.	4B-\	1d	.	1dd
.	4c\	.	4F/	.
2BB-/	2d\	.	4D/	.
.	.	.	4F/	.
=183	=183	=183	=183	=183
2.C/	2c\	1r	2E-/	1ee-
.	4G/	.	2.G/	.
4BB-/	4A/	.	.	.
2GG/	4B-\	1d	.	1dd
.	4c\	.	4F/	.
2BB-/	4d\	.	2D/	.
.	4B-\	.	.	.
=184	=184	=184	=184	=184
!!linebreak:default
1AA	2c\	1c	2E/	1r
.	2A/	.	2F/	.
1GG	2r	1B-	2G/	1dd
.	2d\	.	2B-\	.
=185	=185	=185	=185	=185
1.r	2e\	1c	1A	1cc
.	2f\	.	.	.
.	2.g\	1d	1G	1b-
2G\	.	.	.	.
.	4f\	.	.	.
=186	=186	=186	=186	=186
2A\	1e	1r	1.r	1cc
2c\	.	.	.	.
4B-\	1d	1d	.	1dd
4G\	.	.	.	.
2B-\	.	.	2d\	.
=187	=187	=187	=187	=187
1A	1.r	1c	2e\	1r
.	.	.	2f\	.
1G	.	1B-	2.g\	1dd
.	2d\	.	.	.
.	.	.	4f\	.
=188	=188	=188	=188	=188
0r	2e\	1c	4e\	1cc
.	.	.	4d\	.
.	2.g\	.	4e\	.
.	.	.	4c\	.
.	.	1G	1d	1b-
.	4f\	.	.	.
.	2d\	.	.	.
=189	=189	=189	=189	=189
1C	2e\	0r	2c\	1cc
.	1c	.	1e	.
2C/	.	.	.	1g
[2C/	2c\	.	2e\	.
=190	=190	=190	=190	=190
!!linebreak:default
4C/]	1c	0r	1e	0r
4D\	.	.	.	.
4E\	.	.	.	.
4F\	.	.	.	.
2G\	1B-	.	2.d\	.
[2D\	.	.	.	.
.	.	.	4c\	.
=191	=191	=191	=191	=191
4D\]	2.A/	0r	4d\	0r
4C/	.	.	4e\	.
4D\	.	.	2.f\	.
4E\	4G/	.	.	.
4F\	4A/	.	.	.
4G\	4B-\	.	4e\	.
[2F\	[2A/	.	2d\	.
=192	=192	=192	=192	=192
2F\]	4A/]	1r	4c\	0r
.	4G/	.	4B-\	.
2D\	1F	.	1B-	.
1C	.	2c\	.	.
.	2E/	2c\	2A/	.
=193	=193	=193	=193	=193
1BB-	2F/	1d	1B-	1r
.	1B-	.	.	.
2r	.	1c	1F	2cc\
2F\	2A/	.	.	2cc\
=194	=194	=194	=194	=194
2D\	2.B-\	1B-	2r	1dd
2BB-/	.	.	2.B-\	.
.	4A/	.	.	.
1F	2F/	1r	.	1cc
.	.	.	4A/	.
.	2c\	.	4A/	.
.	.	.	4G/	.
=195	=195	=195	=195	=195
1BB-	2.d\	2r	1B-	1b-
.	.	2B-\	.	.
.	4c\	.	.	.
2r	1A	2.c\	1F	1r
2F\	.	.	.	.
.	.	4B-\	.	.
=196	=196	=196	=196	=196
!!pagebreak:default
2F\	1.r	2A/	1.r	2r
2G\	.	2G/	.	2b-\
2.A\	.	1F	.	2.cc\
.	2F/	.	2c\	.
4G\	.	.	.	4b-\
=197	=197	=197	=197	=197
2F\	2F/	2r	2d\	2a/
2E\	2G/	2c\	2e\	2g/
1D	4A/	2.d\	2.f\	1f
.	4F/	.	.	.
.	[2f\	.	.	.
.	.	4c\	4e\	.
=198	=198	=198	=198	=198
2r	4f\]	2B-\	2d\	2r
.	4d\	.	.	.
2A\	4e\	2A/	2c\	2cc\
.	4f\	.	.	.
2.B-\	2g\	1G	4B-\	2.dd\
.	.	.	4G/	.
.	[2G/	.	[2d\	.
4A\	.	.	.	4cc\
=199	=199	=199	=199	=199
2G\	2G/]	2r	4d\]	2b-\
.	.	.	4e\	.
2F\	2A/	2d\	4f\	2a/
.	.	.	4d\	.
1E-	2B-\	2e-\	1g	1g
.	2G/	2c\	.	.
=200	=200	=200	=200	=200
1D	2B-\	1d	3f\	2r
.	.	.	3d\	.
.	2A/	.	.	2dd\
.	.	.	3f\	.
2r	2r	1c	3e-\	2ee-\
.	.	.	3c\	.
2AA/	2A/	.	.	2cc\
.	.	.	3e-\	.
=201	=201	=201	=201	=201
1BB-	2F/	2r	1d	1dd
.	1G	2B-\	.	.
1AA	.	2c\	2r	1cc
.	2F#/	2A/	2c\	.
=202	=202	=202	=202	=202
!!linebreak:default
2GG/	1G	1B-	3d\	2b-\
.	.	.	3B-\	.
2G\	.	.	.	2cc\
.	.	.	3d\	.
2A\	1r	1A	3c\	2a/
.	.	.	3A/	.
2F\	.	.	.	2r
.	.	.	3c\	.
=203	=203	=203	=203	=203
1G	2r	1.r	4B-\	1b-
.	.	.	4G/	.
.	2G/	.	2g\	.
1r	2A/	.	2e\	1a
.	2F/	2A/	2f\	.
=204	=204	=204	=204	=204
2.GG/	2G/	2.B-\	2d\	1.r
.	2.d\	.	2.G/	.
4AA/	.	4c\	.	.
4BB-/	.	2B-\	.	.
4C/	4e\	.	4F#/	.
2D\	2f\	[2A/	4F#/	2a/
.	.	.	4E/	.
=205	=205	=205	=205	=205
2.GG/	2B-\	4A/]	2G/	2.b-\
.	.	4G/	.	.
.	2.d\	1G	2D/	.
4AA/	.	.	.	4cc\
4BB-/	.	.	1d	2b-\
4C/	4e\	.	.	.
2D\	2f\	2F#/	.	[2a/
=206	=206	=206	=206	=206
2E-\	1e-	1G	2B-\	4a/]
.	.	.	.	4g/
2C/	.	.	2c\	1g
1D	1d	2r	1A	.
.	.	2A/	.	2f#/
=207	=207	=207	=207	=207
2.GG/	2r	2.B-\	2G/	1g
.	1G	.	2.d\	.
4AA/	.	4c\	.	.
4BB-/	.	2B-\	.	2r
4C/	.	.	4e\	.
2D\	2F/	[2A/	2f\	2a/
=208	=208	=208	=208	=208
!!linebreak:default
2.GG/	2G/	4A/]	2B-\	2.b-\
.	.	4G/	.	.
.	2D/	1G	2.d\	.
4AA/	.	.	.	4cc\
4BB-/	1d	.	.	2b-\
4C/	.	.	4e\	.
2D\	.	2F#/	2f\	[2a/
=209	=209	=209	=209	=209
2E-\	2B-\	1G	1e-	4a/]
.	.	.	.	4g/
2C/	2c\	.	.	1g
1D	1A	1r	1d	.
.	.	.	.	2f#/
=210	=210	=210	=210	=210
2GG/	1G	1G	2r	1g
4G\	.	.	2B-\	.
4F\	.	.	.	.
4E-\	2C/	1G	2c\	1r
4D\	.	.	.	.
[2C/	2G/	.	[2e-\	.
=211	=211	=211	=211	=211
4C/]	2C/	0G	2e-\]	1g
4BB-/	.	.	.	.
4BB-/	2D/	.	2d\	.
4AA/	.	.	.	.
1C	1E-	.	1c	1g
=212	=212	=212	=212	=212
[0GG	[0D	[0G	[0B-	0g
=213	=213	=213	=213	=213
0GG]	0D]	0G]	0B-]	0g
==	==	==	==	==
*-	*-	*-	*-	*-
